X: 30163
M: 3/8
L: 1/16
K: F
cB |\
|: ef |\
g4c'2 | gec2=Bc | d2def^f | gegec2 |\
g4c'2 | gec2 =Bc | defga=b | "^D.C."c'4 |]


